icons/svg/arrow-sync.svg

<svg width="24" height="24" viewBox="0 0 24 24" fill="none" xmlns="http://www.w3.org/2000/svg">
<path d="M3.54815 9.73534C3.99606 8.06372 4.9296 6.56246 6.23072 5.42141C7.53185 4.28035 9.14211 3.55075 10.8579 3.32486C12.5737 3.09898 14.3179 3.38695 15.87 4.15237C17.4221 4.91779 18.7124 6.12627 19.5777 7.62501L19.9128 8.38388M20.75 3.25001V7.39707C20.75 7.89391 20.3877 8.30612 19.9128 8.38388M15.6029 8.39707H19.75C19.8054 8.39707 19.8598 8.39255 19.9128 8.38388" stroke="currentColor" stroke-width="1.5" stroke-linecap="round" stroke-linejoin="round"/>
<path d="M3.25 20.75V16.6029C3.25 16.0506 3.69772 15.6029 4.25 15.6029M4.25 15.6029H8.39706M4.25 15.6029L4.42228 16.375C5.28757 17.8737 6.57786 19.0822 8.12998 19.8476C9.68209 20.613 11.4263 20.901 13.1421 20.6751C14.8579 20.4492 16.4682 19.7196 17.7693 18.5786C19.0704 17.4375 20.0039 15.9363 20.4519 14.2646" stroke="currentColor" stroke-width="1.5" stroke-linecap="round" stroke-linejoin="round"/>
</svg>

<svg xmlns="http://www.w3.org/2000/svg" width="24" height="24" fill="none" viewBox="0 0 24 24"><path stroke="currentColor" stroke-linecap="round" stroke-linejoin="round" stroke-width="1.5" d="M3.548 9.735a8.75 8.75 0 0 1 16.03-2.11l.335.759m.837-5.134v4.147a1 1 0 0 1-.837.987m-4.31.013h4.147q.083 0 .163-.013M3.25 20.75v-4.147a1 1 0 0 1 1-1m0 0h4.147m-4.147 0 .172.772a8.75 8.75 0 0 0 16.03-2.11"/></svg>
